src/img/player-backwards.svg

<svg xmlns="http://www.w3.org/2000/svg" width="29" height="26" viewBox="0 0 29 26">
  <g fill="none" fill-rule="evenodd">
    <path fill="#FFFFFF" d="M22.3219283 9L20.9271487 9C20.7855181 8.83389037 20.6371131 8.67324591 20.4819336 8.51806641 19.7335575 7.76969027 18.8580779 7.18066621 17.8554687 6.75097656 16.8528596 6.32128691 15.7858129 6.10644531 14.6542969 6.10644531 13.5156193 6.10644531 12.444992 6.32128691 11.4423828 6.75097656 10.4397736 7.18066621 9.56429411 7.76969027 8.81591797 8.51806641 8.06754183 9.26644254 7.47851777 10.1419221 7.04882812 11.1445312 6.61913848 12.1471404 6.40429687 13.2177677 6.40429687 14.3564453L6.40429687 15.7744141 8.75683594 13.4111328C8.86425835 13.3037104 8.99495366 13.25 9.14892578 13.25 9.30289791 13.25 9.43359321 13.3037104 9.54101562 13.4111328 9.64843804 13.5185552 9.70214844 13.6492505 9.70214844 13.8032227 9.70214844 13.9571948 9.64843804 14.0878901 9.54101562 14.1953125L6.24316406 17.4931641C6.18587211 17.5432945 6.12320998 17.5826821 6.05517578 17.6113281 5.98714159 17.6399741 5.91731807 17.6542969 5.84570312 17.6542969 5.78124968 17.6542969 5.71500685 17.6399741 5.64697266 17.6113281 5.57893846 17.5826821 5.51627633 17.5432945 5.45898437 17.4931641L2.16113281 14.1953125C2.0537104 14.0878901 2 13.9571948 2 13.8032227 2 13.6492505 2.0537104 13.5185552 2.16113281 13.4111328 2.26855522 13.3037104 2.39746019 13.25 2.54785156 13.25 2.69824294 13.25 2.8271479 13.3037104 2.93457031 13.4111328L5.29785156 15.7744141 5.29785156 14.3564453C5.29785156 13.7262338 5.35872335 13.1121449 5.48046875 12.5141602 5.60221415 11.9161754 5.77766812 11.3361031 6.00683594 10.7739258 6.23600375 10.2117485 6.52066887 9.67643483 6.86083984 9.16796875 7.20101082 8.65950267 7.59309674 8.18327045 8.03710937 7.73925781 8.48112201 7.29524518 8.95735423 6.90315925 9.46582031 6.56298828 9.9742864 6.22281731 10.5096001 5.93815219 11.0717773 5.70898438 11.6339546 5.47981656 12.214027 5.30436259 12.8120117 5.18261719 13.4099965 5.06087179 14.0240854 5 14.6542969 5 15.2773469 5 15.8896454 5.06087179 16.4912109 5.18261719 17.0927764 5.30436259 17.6728488 5.47981656 18.2314453 5.70898438 18.7900419 5.93815219 19.3235652 6.22281731 19.8320312 6.56298828 20.3404973 6.90315925 20.8167296 7.29524518 21.2607422 7.73925781 21.6555163 8.13403193 22.0092419 8.5542759 22.3219272 8.99999978L22.3219283 9zM19.26 19.3943662C19.193333 19.3943662 19.1400002 19.3714791 19.1 19.3257042 19.0599998 19.2799293 19.04 19.2218313 19.04 19.1514085L19.04 13.193662 17.36 14.556338C17.3133331 14.5985918 17.2633336 14.6197183 17.21 14.6197183 17.1499997 14.6197183 17.0933336 14.5845074 17.04 14.5140845L16.8 14.1866197C16.7666665 14.1373237 16.75 14.0880284 16.75 14.0387324 16.75 13.9612672 16.783333 13.8978876 16.85 13.8485915L19.02 12.0739437C19.0933337 12.0246476 19.1799995 12 19.28 12L19.75 12C19.816667 12 19.8716664 12.0228871 19.915 12.068662 19.9583335 12.1144368 19.98 12.1725349 19.98 12.2429577L19.98 19.1514085C19.98 19.2218313 19.9583335 19.2799293 19.915 19.3257042 19.8716664 19.3714791 19.816667 19.3943662 19.75 19.3943662L19.26 19.3943662zM23.66 19.5C23.1599975 19.5 22.7266685 19.4049305 22.36 19.2147887 21.9933315 19.0246469 21.7133343 18.77641 21.52 18.4700704 21.3266657 18.1637309 21.2233334 17.8345088 21.21 17.4823944L21.21 17.4612676C21.21 17.4049293 21.2299998 17.3591551 21.27 17.3239437 21.3100002 17.2887322 21.3566664 17.2711268 21.41 17.2711268L21.9 17.2711268C22.0400007 17.2711268 22.1299998 17.3485908 22.17 17.5035211 22.2700005 17.8838047 22.4549987 18.1672526 22.725 18.3538732 22.9950013 18.5404939 23.3066649 18.6338028 23.66 18.6338028 24.1133356 18.6338028 24.4899985 18.4876775 24.79 18.1954225 25.0900015 17.9031676 25.24 17.5000026 25.24 16.9859155 25.24 16.5140821 25.0900015 16.1390859 24.79 15.8609155 24.4899985 15.5827451 24.1133356 15.443662 23.66 15.443662 23.4199988 15.443662 23.2266674 15.4753518 23.08 15.5387324 22.9333326 15.602113 22.7833341 15.6936614 22.63 15.8133803 22.5433329 15.8838032 22.4716669 15.934859 22.415 15.9665493 22.358333 15.9982396 22.296667 16.0140845 22.23 16.0140845L21.75 16.0140845C21.6899997 16.0140845 21.6366669 15.9911974 21.59 15.9454225 21.5433331 15.8996477 21.5233333 15.8450707 21.53 15.7816901L21.84 12.2640845C21.8600001 12.0880273 21.9433326 12 22.09 12L25.55 12C25.6233337 12 25.6799998 12.0211265 25.72 12.0633803 25.7600002 12.105634 25.78 12.1654926 25.78 12.2429577L25.78 12.6338028C25.78 12.7042257 25.7583335 12.7605632 25.715 12.8028169 25.6716665 12.8450706 25.616667 12.8661972 25.55 12.8661972L22.67 12.8661972 22.49 14.9894366C22.8100016 14.7499988 23.2399973 14.6302817 23.78 14.6302817 24.2266689 14.6302817 24.6333315 14.7235906 25 14.9102113 25.3666685 15.0968319 25.6583323 15.3697165 25.875 15.7288732 26.0916677 16.08803 26.2 16.514082 26.2 17.0070423 26.2 17.5281716 26.0916677 17.9771108 25.875 18.3538732 25.6583323 18.7306357 25.3583352 19.0158441 24.975 19.209507 24.5916647 19.40317 24.1533358 19.5 23.66 19.5z"/>
  </g>
</svg>

<svg xmlns="http://www.w3.org/2000/svg" width="29" height="26"><path fill="#FFF" d="M22.322 9h-1.395a8.265 8.265 0 0 0-3.072-2.249 8.04 8.04 0 0 0-3.2-.645c-1.14 0-2.21.215-3.213.645a8.296 8.296 0 0 0-2.626 1.767 8.296 8.296 0 0 0-1.767 2.627 8.067 8.067 0 0 0-.645 3.211v1.418l2.353-2.363a.534.534 0 0 1 .392-.161c.154 0 .285.054.392.161a.534.534 0 0 1 .161.392.534.534 0 0 1-.161.392l-3.298 3.298a.692.692 0 0 1-.188.118.51.51 0 0 1-.408 0 .692.692 0 0 1-.188-.118l-3.298-3.298A.534.534 0 0 1 2 13.803c0-.154.054-.284.161-.392a.527.527 0 0 1 .387-.161c.15 0 .28.054.387.161l2.363 2.363v-1.418c0-.63.06-1.244.182-1.842a9.756 9.756 0 0 1 .527-1.74 8.963 8.963 0 0 1 .854-1.606 9.46 9.46 0 0 1 1.176-1.429 9.41 9.41 0 0 1 1.429-1.176 8.973 8.973 0 0 1 1.606-.854 9.756 9.756 0 0 1 1.74-.526A9.212 9.212 0 0 1 14.654 5c.623 0 1.236.06 1.837.183a9.58 9.58 0 0 1 1.74.526 9.05 9.05 0 0 1 1.601.854c.508.34.985.732 1.429 1.176.395.395.748.815 1.06 1.261zM19.26 19.394a.202.202 0 0 1-.16-.068.255.255 0 0 1-.06-.175v-5.957l-1.68 1.362a.22.22 0 0 1-.15.064c-.06 0-.117-.035-.17-.106l-.24-.327a.263.263 0 0 1-.05-.148c0-.078.033-.141.1-.19l2.17-1.775a.455.455 0 0 1 .26-.074h.47c.067 0 .122.023.165.069a.243.243 0 0 1 .065.174v6.908c0 .07-.022.129-.065.175a.217.217 0 0 1-.165.068h-.49zm4.4.106c-.5 0-.933-.095-1.3-.285a2.116 2.116 0 0 1-.84-.745 1.96 1.96 0 0 1-.31-.988v-.02c0-.057.02-.103.06-.138a.205.205 0 0 1 .14-.053h.49c.14 0 .23.078.27.233.1.38.285.663.555.85.27.186.582.28.935.28.453 0 .83-.146 1.13-.439.3-.292.45-.695.45-1.21 0-.47-.15-.846-.45-1.124-.3-.278-.677-.417-1.13-.417-.24 0-.433.031-.58.095a2.08 2.08 0 0 0-.45.274 1.71 1.71 0 0 1-.215.154.373.373 0 0 1-.185.047h-.48a.222.222 0 0 1-.16-.069.191.191 0 0 1-.06-.163l.31-3.518c.02-.176.103-.264.25-.264h3.46c.073 0 .13.021.17.063.04.043.06.102.06.18v.39a.228.228 0 0 1-.065.17.227.227 0 0 1-.165.063h-2.88l-.18 2.123c.32-.239.75-.359 1.29-.359.447 0 .853.094 1.22.28.367.187.658.46.875.819.217.359.325.785.325 1.278 0 .521-.108.97-.325 1.347a2.123 2.123 0 0 1-.9.856c-.383.193-.822.29-1.315.29z" fill-rule="evenodd"/></svg>
